rospo-light/16x16/actions/office-chart-area-focus-peak-node.svg

<svg height="16" viewBox="0 0 16 16" width="16" xmlns="http://www.w3.org/2000/svg"><path d="m2 2v5.9960938 1 5.0039062h12v-1h-11v-1h3.005859v-.0078l.0078.0078 2-2h1.591797l2 2h2.40039v-1h-1.986328l-2-2h-1.414062-1.00586l-2 2h-2.599596v-2.0039062h2v-.00781l.0078.00781.996106-.9960938h.996094 1v-1h-1v-1h-1v1.9960938l-.703125-.703125-.703125.703125h-1.59375v-5.9960938zm4 0v1 1h1v-1h1v-1zm4 0v1h1v1h1v-2h-1zm-1 1.5898438-1.703125 1.703125.707031.7070312.996094-.9960938.996094.9960938.707031-.7070312zm2 2.4101562v1h-1v1h2v-1-1zm3 0-1 1h1z" fill="#5c616c"/><path d="m9 5-1.9960938 2h .9960938v1h-1.9941406l-.9980469 1h-3.0097656v4h5l2-.007812 5.0000001.007812v-6h-2v1h-2.0000001v-1h1.0000001z" fill="#5c616c" opacity=".5"/></svg>

<?xml version="1.0" encoding="UTF-8" standalone="no"?>
<svg xmlns="http://www.w3.org/2000/svg" width="22" height="22" viewBox="0 0 22 22">
 <defs>
  <style type="text/css" id="current-color-scheme">
   .ColorScheme-Text { color:#5c616c; } .ColorScheme-Highlight { color:#5294e2; }
  </style>
 </defs>
 <path style="fill:currentColor;opacity:1" class="ColorScheme-Text" transform="translate(3 3)" d="m 2,2 0,5.9960938 0,1 L 2,14 l 12,0 0,-1 -11,0 0,-1 3.005859,0 0,-0.0078 0.0078,0.0078 2,-2 1.591797,0 2,2 2.40039,0 0,-1 -1.986328,0 -2,-2 -1.414062,0 -1.00586,0 -2,2 L 3,11 3,8.9960938 l 2,0 0,-0.00781 0.0078,0.00781 L 6.003906,8 7,8 8,8 8,7 7,7 7,6 6,6 6,7.9960938 5.296875,7.2929688 4.59375,7.9960938 3,7.9960938 3,2 2,2 Z M 6,2 6,3 6,4 7,4 7,3 8,3 8,2 6,2 Z m 4,0 0,1 1,0 0,1 1,0 0,-2 -1,0 -1,0 z M 9,3.5898438 7.296875,5.2929688 8.003906,6 9,5.0039062 9.996094,6 10.703125,5.2929688 9,3.5898438 Z M 11,6 l 0,1 -1,0 0,1 2,0 0,-1 0,-1 -1,0 z m 3,0 -1,1 1,0 0,-1 z"/>
 <path style="fill:currentColor;opacity:0.5" class="ColorScheme-Text" transform="translate(3 3)" d="M 9 5 L 7.0039062 7 L 8 7 L 8 8 L 6.0058594 8 L 5.0078125 9 L 1.9980469 9 L 1.9980469 13 L 6.9980469 13 L 8.9980469 12.992188 L 13.998047 13 L 13.998047 7 L 11.998047 7 L 11.998047 8 L 9.9980469 8 L 9.9980469 7 L 10.998047 7 L 9 5 z"/>
</svg>
